Newaita/actions/16/mail-signed-full.svg

<svg height="16" viewBox="0 0 16 16" width="16" xmlns="http://www.w3.org/2000/svg"><g fill="#424242"><path d="m13.890625 7.871094c-.257813-.261719-.675781-.261719-.933594 0l-2.507812 2.507812c-.027344.015625-.050781.03125-.074219.054688l1.421875 1.421875c.019531-.023438.039063-.046875.054687-.074219l2.507813-2.507812c.257813-.261719.257813-.675782 0-.9375zm-3.984375 3.03125-.234375.234375c-.03125.027343-.054687.066406-.070313.105469l-.703124 1.636718c-.121094.285156.167968.574219.449218.453125l1.640625-.703125c.039063-.019531.074219-.042968.105469-.074218l.234375-.234376zm0 0"/><path d="m13.230469 2.769531h-10.585938c-.730469 0-1.320312.589844-1.320312 1.324219v7.9375c0 .734375.589843 1.324219 1.320312 1.324219h4.964844v-1.324219h-4.300781c-.367188 0-.664063-.292969-.664063-.660156v-6.46875l4.855469 4.316406c.25.21875.625.21875.875 0l4.855469-4.316406v1.507812h1.324219v-2.316406c0-.734375-.589844-1.324219-1.324219-1.324219zm-9.511719 1.324219h8.4375l-4.21875 3.75zm0 0"/></g></svg>

<svg xmlns="http://www.w3.org/2000/svg" xmlns:xlink="http://www.w3.org/1999/xlink" width="16px" height="16px" viewBox="0 0 16 16" version="1.1">
<g id="surface1">
     <defs>
  <style id="current-color-scheme" type="text/css">
   .ColorScheme-Text { color:#424242; } .ColorScheme-Highlight { color:#eeeeee; }
  </style>
 </defs>
<path style="fill:currentColor" class="ColorScheme-Text" d="M 13.890625 7.871094 C 13.632812 7.609375 13.214844 7.609375 12.957031 7.871094 L 10.449219 10.378906 C 10.421875 10.394531 10.398438 10.410156 10.375 10.433594 L 11.796875 11.855469 C 11.816406 11.832031 11.835938 11.808594 11.851562 11.78125 L 14.359375 9.273438 C 14.617188 9.011719 14.617188 8.597656 14.359375 8.335938 Z M 9.90625 10.902344 L 9.671875 11.136719 C 9.640625 11.164062 9.617188 11.203125 9.601562 11.242188 L 8.898438 12.878906 C 8.777344 13.164062 9.066406 13.453125 9.347656 13.332031 L 10.988281 12.628906 C 11.027344 12.609375 11.0625 12.585938 11.09375 12.554688 L 11.328125 12.320312 Z M 9.90625 10.902344 "/>
     <defs>
  <style id="current-color-scheme" type="text/css">
   .ColorScheme-Text { color:#424242; } .ColorScheme-Highlight { color:#eeeeee; }
  </style>
 </defs>
<path style="fill:currentColor" class="ColorScheme-Text" d="M 13.230469 2.769531 L 2.644531 2.769531 C 1.914062 2.769531 1.324219 3.359375 1.324219 4.09375 L 1.324219 12.03125 C 1.324219 12.765625 1.914062 13.355469 2.644531 13.355469 L 7.609375 13.355469 L 7.609375 12.03125 L 3.308594 12.03125 C 2.941406 12.03125 2.644531 11.738281 2.644531 11.371094 L 2.644531 4.902344 L 7.5 9.21875 C 7.75 9.4375 8.125 9.4375 8.375 9.21875 L 13.230469 4.902344 L 13.230469 6.410156 L 14.554688 6.410156 L 14.554688 4.09375 C 14.554688 3.359375 13.964844 2.769531 13.230469 2.769531 Z M 3.71875 4.09375 L 12.15625 4.09375 L 7.9375 7.84375 Z M 3.71875 4.09375 "/>
</g>
</svg>
